public/marduspace_logo_bg_white.svg

<svg xmlns="http://www.w3.org/2000/svg" xml:space="preserve" style="fill-rule:evenodd;clip-rule:evenodd;stroke-linejoin:round;stroke-miterlimit:2" viewBox="0 0 1064 242"><path d="M-27.455 789.712c0 1.048.8 1.847 1.846 1.847a1.813 1.813 0 0 0 1.847-1.847c0-1.049-.8-1.847-1.847-1.847a1.81 1.81 0 0 0-1.846 1.847m74.798-27.553c-1.699-3.149-4.75-4.744-8.102-4.744-5.952 0-8.546 4.444-8.546 8.295 0 1.3.299 2.551 1.047 3.801 1.147 1.9 2.797 2.8 6.099 4.401 2.751 1.35 4.702 2.35 5.652 2.9 2.551 1.551 3.252 3.451 3.252 5.251 0 4.401-3.552 7.702-8.054 7.702-2.301 0-4.752-.95-6.251-2.851-.499-.6-1.346-1.9-1.795-3.2l-1.9.9c.3.85.85 2.15 2.149 3.65 1.247 1.451 3.445 3.495 7.747 3.495 5.703 0 10.397-4.145 10.397-9.746 0-3.7-2.094-5.451-3.544-6.451-1.701-1.2-3.351-1.9-6.653-3.501-3.351-1.65-5.853-2.85-5.853-6.451 0-3.351 2.252-6.201 6.203-6.201.901 0 4.502.1 6.553 4.101zm61.998 13.2c5.753 0 9.697-3.245 9.697-8.797 0-5.703-4.294-8.697-9.747-8.697h-6.446v33.344h2.193v-15.85zm-4.303-15.5h4.053c4.852 0 7.654 2.601 7.654 6.753 0 4.202-2.952 6.753-7.304 6.753h-4.403zm84.257 31.35h2.393l-13.846-34.344-14.047 34.344h2.393l4.452-10.95h14.204zm-17.855-12.944 6.352-15.8 6.251 15.8zm97.748-16.506c-1-.95-4.85-4.344-11.2-4.344-9.6 0-17.293 7.595-17.293 17.197 0 9.302 7.393 17.147 17.393 17.147 3.6 0 7.7-1.147 11.1-4.145v-2.9c-3.4 3.701-7.85 5.051-11.2 5.051-6.75 0-15-5.151-15-15.053 0-8.452 6.4-15.303 14.95-15.303 4.3 0 8.4 1.9 11.25 5.251zm69.8-3.894h-15.993v33.344h15.993v-1.994h-13.8v-15.256h13.5v-1.994h-13.5v-12.106h13.8z" style="fill:#262626;fill-rule:nonzero" transform="translate(453.067 -1207.144)scale(1.80105)"/><path d="m0 62.629 5.506-50.405 24.451 52.662c.093 0 24.45-52.662 24.45-52.662l5.508 50.405c2.593-.052 4.104-.058 4.105 0L56.928-2.257 29.957 55.764 2.987-2.257l-7.094 64.886z" style="fill-rule:nonzero" transform="translate(409.849 27.857)scale(1.51703)"/><path d="m0-15.891 11.852 29.715 11.665-29.715zm33.317-24.356h4.479l-25.85 64.603-26.226-64.603h4.48l8.307 20.594h26.504z" style="fill-rule:nonzero" transform="translate(604.828 87.352)scale(1.51703)"/><path d="M0-55.2h5.133c2.426 0 6.905.378 9.519 1.881 2.427 1.316 5.507 4.608 5.507 10.908 0 8.088-5.32 12.79-14.186 12.79H0zM26.691 3.762 6.346-25.859c1.4 0 4.386-.095 7.653-1.223 7.747-2.633 10.452-9.028 10.452-15.235 0-4.89-1.586-10.062-6.44-13.447-4.105-2.822-8.398-3.198-13.158-3.198h-8.959V3.762H0v-29.621h1.867L22.026 3.762z" style="fill-rule:nonzero" transform="translate(749.868 117.16)scale(1.51703)"/><path d="M0-55.2h8.119c16.332 0 27.718 11.567 27.718 27.648C35.837-11.284 24.544.002 8.119.002H0zM8.211 3.762c5.508 0 15.121-.846 22.959-8.746 6.627-6.676 8.959-15.704 8.959-22.568 0-6.866-2.332-15.987-8.959-22.664-7.838-7.9-17.451-8.746-22.959-8.746H-4.106V3.762z" style="fill-rule:nonzero" transform="translate(867.094 117.16)scale(1.51703)"/><path d="M0-63.759v39.214c0 6.865.373 11.38 3.546 16.081C8.211-1.598 15.586 0 21.185 0s12.971-1.598 17.638-8.464c3.173-4.701 3.546-9.216 3.546-16.081v-39.214h-4.106v39.214c0 5.925-.28 9.781-2.614 13.543-3.639 5.923-10.452 7.24-14.464 7.24-4.014 0-10.826-1.317-14.467-7.24-2.332-3.762-2.611-7.618-2.611-13.543v-39.214z" style="fill-rule:nonzero" transform="translate(999.328 124.436)scale(1.51703)"/><path d="m0-67.598-80.732 46.609a2.99 2.99 0 0 0 0 5.18L-53.093.133c.455.264.969.401 1.494.401h.775c.525 0 1.04-.139 1.495-.401L2.583-29.844c.45-.26.824-.634 1.087-1.082l.406-.696c.267-.456.408-.977.408-1.506V-65.01A2.99 2.99 0 0 0 0-67.598" style="fill:#351b5a" transform="translate(253.232 103.157)scale(1.51703)"/><path d="M0-81.292a2.99 2.99 0 0 1 1.495 2.588v.002c0 1.068-.57 2.056-1.495 2.59l-49.724 28.714a2.99 2.99 0 0 0-1.494 2.59v57.413c0 2.302-2.49 3.738-4.483 2.588L-83.312-.747a3 3 0 0 1-1.105-1.112l-.39-.685a3 3 0 0 1-.389-1.478s-.083-49.591 0-59.87a3.8 3.8 0 0 1 .498-1.801c.314-.563.791-1.207 1.386-1.573 3.439-2.114 19.245-11.109 19.245-11.109l32.663-18.86c.454-.263.971-.4 1.496-.4h.793c.525 0 1.04.137 1.494.4z" style="fill:#351b5a" transform="translate(311.401 217.385)scale(1.51703)"/><path d="M0-49.881a3 3 0 0 0-1.102-1.105l-23.064-13.306v-.01s-24.457-14.339-29.83-17.206c-.708-.378-1.7-.378-2.408 0-5.374 2.867-29.837 17.206-29.837 17.206v.027l-22.749 13.137a3 3 0 0 0-1.102 1.107l-.392.687a3 3 0 0 0-.395 1.483v31.895a2.993 2.993 0 0 0 4.486 2.59l49.695-28.691a2.99 2.99 0 0 1 2.991 0l18.984 10.961a2.99 2.99 0 0 1 1.495 2.588v57.395c0 1.07.572 2.058 1.499 2.592l.005.003a2.99 2.99 0 0 0 2.986-.001L-1.102 15.53A3 3 0 0 0 0 14.422l.391-.687c.259-.452.395-.962.395-1.482v-59.964c0-.522-.136-1.033-.395-1.485z" style="fill:#351b5a" transform="translate(168.203 192.92)scale(1.51703)"/></svg>

<?xml version="1.0" encoding="UTF-8" standalone="no"?><!DOCTYPE svg PUBLIC "-//W3C//DTD SVG 1.1//EN" "http://www.w3.org/Graphics/SVG/1.1/DTD/svg11.dtd"><svg width="100%" height="100%" viewBox="0 0 1064 242" version="1.1" xmlns="http://www.w3.org/2000/svg" xmlns:xlink="http://www.w3.org/1999/xlink" xml:space="preserve" xmlns:serif="http://www.serif.com/" style="fill-rule:evenodd;clip-rule:evenodd;stroke-linejoin:round;stroke-miterlimit:2;"><g transform="matrix(1,0,0,1,-1830.99,-765.193)"><g transform="matrix(1,0,0,1,1778.14,641.769)"><g transform="matrix(1.13201,0,0,1.13201,-154.986,-56.3107)"><g transform="matrix(1.59102,0,0,1.59102,583.831,-907.597)"><path d="M-27.455,789.712C-27.455,790.76 -26.655,791.559 -25.609,791.559C-24.562,791.559 -23.762,790.76 -23.762,789.712C-23.762,788.663 -24.562,787.865 -25.609,787.865C-26.655,787.865 -27.455,788.663 -27.455,789.712Z" style="fill:rgb(38,38,38);fill-rule:nonzero;"/><path d="M47.343,762.159C45.644,759.01 42.593,757.415 39.241,757.415C33.289,757.415 30.695,761.859 30.695,765.71C30.695,767.01 30.994,768.261 31.742,769.511C32.889,771.411 34.539,772.311 37.841,773.912C40.592,775.262 42.543,776.262 43.493,776.812C46.044,778.363 46.745,780.263 46.745,782.063C46.745,786.464 43.193,789.765 38.691,789.765C36.39,789.765 33.939,788.815 32.44,786.914C31.941,786.314 31.094,785.014 30.645,783.714L28.745,784.614C29.045,785.464 29.595,786.764 30.894,788.264C32.141,789.715 34.339,791.759 38.641,791.759C44.344,791.759 49.038,787.614 49.038,782.013C49.038,778.313 46.944,776.562 45.494,775.562C43.793,774.362 42.143,773.662 38.841,772.061C35.49,770.411 32.988,769.211 32.988,765.61C32.988,762.259 35.24,759.409 39.191,759.409C40.092,759.409 43.693,759.509 45.744,763.51L47.343,762.159Z" style="fill:rgb(38,38,38);fill-rule:nonzero;"/><path d="M109.341,775.359C115.094,775.359 119.038,772.114 119.038,766.562C119.038,760.859 114.744,757.865 109.291,757.865L102.845,757.865L102.845,791.209L105.038,791.209L105.038,775.359L109.341,775.359ZM105.038,759.859L109.091,759.859C113.943,759.859 116.745,762.46 116.745,766.612C116.745,770.814 113.793,773.365 109.441,773.365L105.038,773.365L105.038,759.859Z" style="fill:rgb(38,38,38);fill-rule:nonzero;"/><path d="M189.295,791.209L191.688,791.209L177.842,756.865L163.795,791.209L166.188,791.209L170.64,780.259L184.844,780.259L189.295,791.209ZM171.44,778.265L177.792,762.465L184.043,778.265L171.44,778.265Z" style="fill:rgb(38,38,38);fill-rule:nonzero;"/><path d="M269.188,761.759C268.188,760.809 264.338,757.415 257.988,757.415C248.388,757.415 240.695,765.01 240.695,774.612C240.695,783.914 248.088,791.759 258.088,791.759C261.688,791.759 265.788,790.612 269.188,787.614L269.188,784.714C265.788,788.415 261.338,789.765 257.988,789.765C251.238,789.765 242.988,784.614 242.988,774.712C242.988,766.26 249.388,759.409 257.938,759.409C262.238,759.409 266.338,761.309 269.188,764.66L269.188,761.759Z" style="fill:rgb(38,38,38);fill-rule:nonzero;"/><path d="M338.988,757.865L322.995,757.865L322.995,791.209L338.988,791.209L338.988,789.215L325.188,789.215L325.188,773.959L338.688,773.959L338.688,771.965L325.188,771.965L325.188,759.859L338.988,759.859L338.988,757.865Z" style="fill:rgb(38,38,38);fill-rule:nonzero;"/></g><g transform="matrix(1.34012,0,0,1.34012,545.653,183.383)"><path d="M0,62.629L5.506,12.224L29.957,64.886C30.05,64.886 54.407,12.224 54.407,12.224L59.915,62.629C62.508,62.577 64.019,62.571 64.02,62.629L56.928,-2.257L29.957,55.764L2.987,-2.257L-4.107,62.629L0,62.629Z" style="fill-rule:nonzero;"/></g><g transform="matrix(1.34012,0,0,1.34012,717.895,235.94)"><path d="M0,-15.891L11.852,13.824L23.517,-15.891L0,-15.891ZM33.317,-40.247L37.796,-40.247L11.946,24.356L-14.28,-40.247L-9.8,-40.247L-1.493,-19.653L25.011,-19.653L33.317,-40.247Z" style="fill-rule:nonzero;"/></g><g transform="matrix(1.34012,0,0,1.34012,846.021,262.272)"><path d="M0,-55.2L5.133,-55.2C7.559,-55.2 12.038,-54.822 14.652,-53.319C17.079,-52.003 20.159,-48.711 20.159,-42.411C20.159,-34.323 14.839,-29.621 5.973,-29.621L0,-29.621L0,-55.2ZM26.691,3.762L6.346,-25.859C7.746,-25.859 10.732,-25.954 13.999,-27.082C21.746,-29.715 24.451,-36.11 24.451,-42.317C24.451,-47.207 22.865,-52.379 18.011,-55.764C13.906,-58.586 9.613,-58.962 4.853,-58.962L-4.106,-58.962L-4.106,3.762L0,3.762L0,-25.859L1.867,-25.859L22.026,3.762L26.691,3.762Z" style="fill-rule:nonzero;"/></g><g transform="matrix(1.34012,0,0,1.34012,949.576,262.272)"><path d="M0,-55.2L8.119,-55.2C24.451,-55.2 35.837,-43.633 35.837,-27.552C35.837,-11.284 24.544,0.002 8.119,0.002L0,0.002L0,-55.2ZM8.211,3.762C13.719,3.762 23.332,2.916 31.17,-4.984C37.797,-11.66 40.129,-20.688 40.129,-27.552C40.129,-34.418 37.797,-43.539 31.17,-50.216C23.332,-58.116 13.719,-58.962 8.211,-58.962L-4.106,-58.962L-4.106,3.762L8.211,3.762Z" style="fill-rule:nonzero;"/></g><g transform="matrix(1.34012,0,0,1.34012,1066.39,268.7)"><path d="M0,-63.759L0,-24.545C0,-17.68 0.373,-13.165 3.546,-8.464C8.211,-1.598 15.586,0 21.185,0C26.784,0 34.156,-1.598 38.823,-8.464C41.996,-13.165 42.369,-17.68 42.369,-24.545L42.369,-63.759L38.263,-63.759L38.263,-24.545C38.263,-18.62 37.983,-14.764 35.649,-11.002C32.01,-5.079 25.197,-3.762 21.185,-3.762C17.171,-3.762 10.359,-5.079 6.718,-11.002C4.386,-14.764 4.107,-18.62 4.107,-24.545L4.107,-63.759L0,-63.759Z" style="fill-rule:nonzero;"/></g></g><g transform="matrix(1.13201,0,0,1.13201,-154.986,-56.3107)"><g transform="matrix(1.34012,0,0,1.34012,407.3,249.902)"><path d="M0,-67.598L-80.732,-20.989C-81.658,-20.455 -82.227,-19.467 -82.227,-18.399C-82.227,-17.331 -81.658,-16.343 -80.732,-15.809L-53.093,0.133C-52.638,0.397 -52.124,0.534 -51.599,0.534L-50.824,0.534C-50.299,0.534 -49.784,0.395 -49.329,0.133L2.583,-29.844C3.033,-30.104 3.407,-30.478 3.67,-30.926L4.076,-31.622C4.343,-32.078 4.484,-32.599 4.484,-33.128L4.484,-65.01C4.484,-66.076 3.914,-67.064 2.99,-67.598C2.065,-68.132 0.926,-68.132 0,-67.598" style="fill:rgb(53,27,90);"/></g><g transform="matrix(1.34012,0,0,1.34012,458.686,350.809)"><path d="M0,-81.292C0.925,-80.758 1.495,-79.772 1.495,-78.704L1.495,-78.702C1.495,-77.634 0.925,-76.646 0,-76.112L-49.724,-47.398C-50.648,-46.865 -51.218,-45.877 -51.218,-44.808L-51.218,12.605C-51.218,14.907 -53.708,16.343 -55.701,15.193L-83.312,-0.747C-83.772,-1.014 -84.154,-1.396 -84.417,-1.859L-84.807,-2.544C-85.063,-2.995 -85.196,-3.504 -85.196,-4.022C-85.196,-4.022 -85.279,-53.613 -85.196,-63.892C-85.191,-64.515 -85.002,-65.149 -84.698,-65.693C-84.384,-66.256 -83.907,-66.9 -83.312,-67.266C-79.873,-69.38 -64.067,-78.375 -64.067,-78.375L-31.404,-97.235C-30.95,-97.498 -30.433,-97.635 -29.908,-97.635L-29.115,-97.635C-28.59,-97.635 -28.075,-97.498 -27.621,-97.235L0,-81.292Z" style="fill:rgb(53,27,90);"/></g><g transform="matrix(1.34012,0,0,1.34012,332.187,329.197)"><path d="M0,-49.881C-0.264,-50.34 -0.643,-50.723 -1.102,-50.986L-24.166,-64.292L-24.166,-64.302C-24.166,-64.302 -48.623,-78.641 -53.996,-81.508C-54.704,-81.886 -55.696,-81.886 -56.404,-81.508C-61.778,-78.641 -86.241,-64.302 -86.241,-64.302L-86.241,-64.275L-108.99,-51.138C-109.449,-50.873 -109.829,-50.491 -110.092,-50.031L-110.484,-49.344C-110.742,-48.891 -110.879,-48.38 -110.879,-47.861L-110.879,-15.966C-110.879,-14.898 -110.307,-13.91 -109.382,-13.376C-108.458,-12.842 -107.319,-12.842 -106.393,-13.376L-56.698,-42.067C-55.772,-42.601 -54.633,-42.601 -53.707,-42.067L-34.723,-31.106C-33.799,-30.572 -33.228,-29.586 -33.228,-28.518L-33.228,28.877C-33.228,29.947 -32.656,30.935 -31.729,31.469L-31.724,31.472C-30.8,32.005 -29.662,32.003 -28.738,31.471L-1.102,15.53C-0.643,15.264 -0.264,14.882 0,14.422L0.391,13.735C0.65,13.283 0.786,12.773 0.786,12.253L0.786,-47.711C0.786,-48.233 0.65,-48.744 0.391,-49.196L0,-49.881Z" style="fill:rgb(53,27,90);"/></g></g></g></g></svg>
